X: 35517
T: Ruined Old Cottage In The Glen, The
R: reel
M: 4/4
K: Edorian
|:B2 AF D2 FA|B~A3 (3Bcd ef|dBAF DEFA|BdAF FEEA:|
B2 ed BdAd|(3Bcd ef gfed|B2 ed BdAd|(3Bcd AF FEEA|
ABed BdAd|(3Bcd ef g2 ga|bg (3agf gfed|BdAF FEEA|

